X:1
T:Rubum quem viderat Moyses
T:Rubum quem viderat Moyses
T:Josquin
C:Josquin
%%score [ 1 2 3 4 ]
L:1/8
Q:1/4=120
M:2/2
K:F
V:1 treble nm="Soprano" snm="S"
V:2 treble nm="Alto" snm="A"
V:3 treble-8 nm="Tenor" snm="T"
V:4 bass nm="Bass" snm="B"
V:1
 z8 | z8 | z8 | z8 | z8 | z8 | G8 | A4 B4 | c6 c2 | c8- | c8- | c8 | G6 A2 | B4 B4 | B8 | A6 B2 | %16
w: ||||||Ru-|bum quem|vi- de-|rat|_||Mo- *|* y-|ses|in- com-|
 c4 c4 | z4 c4 | c4 c4 | B6 AG | B3 c d4- | d4 c4 | d2 A2 B4 | A8 | z8 | z8 | z8 | z8 | z8 | z8 | %30
w: bu- stum|con-|ser- va-|tam _ _|_ _ _|* a-|gno- * vi-|mus|||||||
 z8 | z8 | G8 | d8 | d4 d4 | d6 d2 | c4 c4 | B2 G2 d4- | d2 c2 B4- | B2 AG B4 | A8 | z8 | z8 | z8 | %44
w: ||tu-||am lau-|da- bu-|lem vir-|gi- ni- ta-|||tem,||||
 z4 A4 | B4 c4 | d3 c B4 | A8- | A8 | z8 | z8 | z8 | z4 d4 | (c4 A4) | c6 BA | G2 B2 A4 | %56
w: vir-|gi- ni-|ta- * *|tem,|_||||De-|i _|Ge- * *|* * ni-|
 G2 B2 B2 B2 | A2 A2 B4 | A8 | z4 z2 d2 | c2 d2 A4 | z2 c2 A3 =B | ^c16 |] %63
w: trix, in- ter- ce-|de pro no-|bis,|in-|ter- ce- de|pro no- *|bis.|
V:2
 z8 | z8 | z8 | z8 | z8 | z8 | z4 C4- | C4 D4 | _E4 F4- | F2 F2 F4 | (_E6 DC | _E4) E4 | _E8- | %13
w: ||||||Ru-|* bum|quem vi-|* de- rat|Mo- * *|* y-|ses|
 E8 | D6 _E2 | F4 F4 | z4 F4 | F4 F4 | _E6 DC | _E3 F G4- | G4 F4 | G2 D2 _E4 | D8 | z8 | z8 | z8 | %26
w: _|in- com-|bu- stum,|con-|ser- va-|tam _ _|_ _ _|* a-|gno- * vi-|mus||||
 z8 | z8 | z8 | z8 | z8 | C8 | G8 | G4 G4 | G6 G2 | F4 D4 | _E2 C2 E4- | E4 D4 | B,6 A,G, | %39
w: |||||tu-||am lau-|da- bi-|lem vir-|gi- ni- ta-|||
 B,3 C D3 E | F8 | z8 | z8 | z4 D4 | E4 F4 | G3 F _E4 | D8- | D8 | z8 | z8 | z8 | z4 G4 | (F4 D4) | %53
w: |tem,|||vir-|gi- ni-|ta- * *|tem,|_||||De-|i _|
 F6 _ED | _E2 F2 C3 D | _EF G3 ^FF=E | G4 D3 _E | F4 B,4 | z2 F2 F2 F2 | E2 E2 F4 | E2 F2 F2 F2 | %61
w: Ge- * *||* * * * ni- *|trix, in- ter-|ce- de,|in- ter- ce-|de pro no-|bis, in- ter- ce-|
 E2 E2 F4 | E16 |] %63
w: de pro no-|bis.|
V:3
 z8 | z8 | z8 | G8 | A4 B4 | c6 c2 | (c6 B2) | A4 G4 | c4 F4 | (A6 B2 | c8) | z4 c4- | c4 B4 | %13
w: |||Ru-|bum quem|vi- de-|rat _|Mo- *|* y-|ses _|_|Mo-||
 G4 B4- | B2 B2 B3 A | F8- | F8 | z8 | z8 | z8 | z8 | z8 | z8 | A6 B2 | c4 c4 | z4 c4 | c4 c4 | %27
w: |* y- ses _|_||||||||in- com-|bu- stum,|con-|ser- va-|
 B6 AG | B3 c d4- | d4 c4 | d2 A2 B4 | A4 c4- | c2 B2 G3 A | B4 G4- | G2 A2 B2 c2 | d4 B4 | c8 | %37
w: tam _ _|_ _ _|* a-|gno- * vi-|mus, a-||gno- *||* vi-|mus|
 G8 | d8 | d4 d4 | d6 d2 | c4 A4 | B4 c4 | d3 c B4 | A8 | z8 | z8 | z4 d4 | (c4 A4) | c6 BA | %50
w: tu-||am lau-|da- bi-|lem vir-|gi- ni-|ta- * *|tem,|||De-|i _|Ge- * *|
 G3 B A4 | (G8 | d8) | z8 | z8 | z8 | z8 | z8 | z2 d2 d2 d2 | c2 c2 d4 | A8- | A8- | A16 |] %63
w: * * ni-|trix,|_||||||in- ter- ce-|de pro no-|bis.|_||
V:4
 D,8 | _E,4 F,4 | G,6 G,2 | G,4 (_E,4 | F,4) G,4 | C,8- | C,8 | z8 | z8 | z8 | z8 | (C,6 D,2) | %12
w: Ru-|bum quem|vi- de-|rat Mo-|* y-|ses|_|||||Mo- *|
 _E,4 E,4 | _E,8 | B,,8 | z8 | z8 | z8 | z8 | z8 | z8 | z8 | D,6 _E,2 | F,4 F,4 | z4 F,4 | %25
w: * y-|ses|_||||||||in- com-|bu- stum,|con-|
 F,4 F,4 | _E,6 D,C, | _E,3 F, G,4- | G,4 F,4 | G,2 D,2 _E,4 | D,6 _E,2 | F,4 C,3 D, | %32
w: ser- va-|tam _ _|_ _ _|* a-|gno- * *|||
 E,3 F, G,4- | G,4 z4 | z8 | z8 | C,8 | G,8 | G,4 G,4 | G,6 G,2 | F,4 D,4 | _E,4 F,4 | %42
w: * vi- mus|_|||tu-||am lau-|da- bi-|lem vir-|gi- ni-|
 G,3 F, _E,4 | D,8 | z8 | z8 | z4 G,4 | F,4 D,4 | F,6 _E,D, | _E,2 F,2 C,3 D, | %50
w: ta- * *|tem,|||De-|i _|Ge- * *||
 _E,F, G,3 ^F,F,=E, | G,4 _E,4 | D,8 | z8 | z8 | z8 | z2 G,2 G,2 G,2 | F,2 F,2 F,4 | D,8 | z8 | %60
w: |* ni-|trix,||||in- ter- ce-|de pro no-|bis,||
 z2 D,2 D,2 D,2 | C,2 C,2 D,4 | A,,16 |] %63
w: in- ter- ce-|de pro no-|bis.|

